!!!OTL-incipit: ES WAR EIN MAEDCHEN VON ACHTZEHN JAHREN
!!!ARE: Europa, Mitteleuropa, Deutschland, Herzogtum Berg
!!!SCT: Z0105
!!!TXL: @@DE
!!!YEM: Copyright 1995, estate of Helmut Schaffrath.
**kern	**text
*ICvox	*
*M6/8	*
*k[b-e-]	*
*g:	*
!LO:TX:a:t=Bergiſch.	!
{8d	Es
=1	=1
8dL	war
8gJ	.
8g	ein
8g	Mäd-
8a	-chen
8b-/	von
=2	=2
8aL	acht-
8gJ	.
8f#	-ʒehn
8g	Jahren,
8d}	.
{8g	das
=3	=3
8g	hat
8g	ſich
8g	ʒwei
8d	Männern
8e-	.
16fnL	ge-
16e-J	.
=4	=4
4d	-traut,
8r	.
4r}	.
{8dd	der
=5	=5
8ddL	ei-
8cc#J	.
8dd	-ne
8b-L	war
8aJ	.
8dd	ein
=6	=6
4.b-/	Schiffsmann,
4a}	.
{8dd	der
=7	=7
8g	an-
8a	-dre
8b-/	ein
8a	E-
8g	.
8f#	-del-
=8	=8
4g	-knecht.
4r	.
8r}	.
==	==
!!!AGN: Sagen - Lied, Romanze, Tod
!!!ONB: ESAC (Essen Associative Code) Database: ZUCCAL
!!!AMT: compound duple
!!!AIN: vox
!!!EED: Helmut Schaffrath
!!!EEV: 1.0
!!!GTL: I. Ernste Romanzen und Sagen.
!!!URL-scan: https://www.digitale-sammlungen.de/de/view/bsb11160571?page=203
!!!ENC: Anna Maria Matuszewska
!!!EEV: 2025/01/27
*-	*-
